public/images/hashed/df8662a77f0365dd25136267be706a4f.svg

<?xml version="1.0" encoding="UTF-8"?>
<svg width="80px" height="80px" viewBox="0 0 80 80" version="1.1" xmlns="http://www.w3.org/2000/svg" xmlns:xlink="http://www.w3.org/1999/xlink">
    <!-- Generator: Sketch 64 (93537) - https://sketch.com -->
    <title>Icon-Architecture/64/Arch_AWS-PrivateLink_64</title>
    <desc>Created with Sketch.</desc>
    <defs>
        <linearGradient x1="0%" y1="100%" x2="100%" y2="0%" id="linearGradient-1">
            <stop stop-color="#4D27A8" offset="0%"></stop>
            <stop stop-color="#A166FF" offset="100%"></stop>
        </linearGradient>
    </defs>
    <g id="Icon-Architecture/64/Arch_AWS-PrivateLink_64" stroke="none" stroke-width="1" fill="none" fill-rule="evenodd">
        <g id="Icon-Architecture-BG/64/Networking-Content-Delivery" fill="url(#linearGradient-1)">
            <rect id="Rectangle" x="0" y="0" width="80" height="80"></rect>
        </g>
        <path d="M41.745,41.1552326 C42.713,42.248773 44,43.9274889 44,45.87201 C44,49.7731801 40.859,52.9466708 37,52.9466708 L29,52.9466708 C25.141,52.9466708 22,49.7731801 22,45.87201 C22,41.9718506 25.141,38.7973492 29,38.7973492 L33,38.7973492 L33,40.8186808 L29,40.8186808 C26.243,40.8186808 24,43.086615 24,45.87201 C24,48.6584157 26.243,50.9253392 29,50.9253392 L37,50.9253392 C39.757,50.9253392 42,48.6584157 42,45.87201 C42,44.619795 41.004,43.3493881 40.255,42.5034608 L41.745,41.1552326 Z M56,43.8506783 C56,47.7518485 52.859,50.9253392 49,50.9253392 L45,50.9253392 L45,48.9040075 L49,48.9040075 C51.757,48.9040075 54,46.637084 54,43.8506783 C54,41.0652833 51.757,38.7973492 49,38.7973492 L41,38.7973492 C38.243,38.7973492 36,41.0652833 36,43.8506783 C36,44.7501709 36.463,45.6729088 36.865,46.3773429 L35.135,47.3890194 C34.606,46.4672922 34,45.2312479 34,43.8506783 C34,39.9505189 37.141,36.7760175 41,36.7760175 L49,36.7760175 C52.859,36.7760175 56,39.9505189 56,43.8506783 L56,43.8506783 Z M57.28,55.9786683 L22.721,55.9786683 C18.011,55.9746257 14.268,52.5858631 14.017,48.0995175 C14.007,47.8943523 14,47.6841338 14,47.4698727 C14,41.6918961 18.112,39.7645564 20.605,39.1278369 C21.072,39.0388983 21.42,38.6245253 21.42,38.1333417 C21.42,38.0817978 21.416,38.0322751 21.409,37.9817419 C21.349,37.4784303 21.318,36.9690547 21.318,36.4677644 C21.318,31.8257763 24.608,26.8280337 28.808,25.0896885 C33.869,22.9986209 39.227,24.0396067 43.145,27.8801369 C44.672,29.3759223 45.863,31.2860807 46.685,33.5590682 C46.811,33.9067372 47.113,34.1563717 47.474,34.2119583 C47.835,34.2675449 48.197,34.118977 48.42,33.8268946 C49.648,32.2007333 51.636,31.5175232 53.493,32.0915814 C55.652,32.7576102 57.051,34.9760217 57.231,38.0241898 C57.259,38.4820214 57.587,38.8640531 58.032,38.955013 C61.667,39.6948204 66,41.7868987 66,47.550726 C66,54.8841172 60.537,55.9786683 57.28,55.9786683 L57.28,55.9786683 Z M59.159,37.1368252 C58.735,33.6015161 56.871,31.0202756 54.077,30.1581776 C51.935,29.4982129 49.679,29.9893964 47.97,31.4043286 C47.091,29.4719355 45.94,27.8033263 44.538,26.4288207 C40.032,22.012211 33.869,20.8125507 28.051,23.2199567 C23.072,25.2796937 19.318,30.9747956 19.318,36.4677644 C19.318,36.7739962 19.328,37.0822493 19.348,37.3905023 C16.627,38.2707923 12,40.7550089 12,47.4698727 C12,47.7205178 12.007,47.9661096 12.02,48.2106907 C12.333,53.7855235 16.933,57.9949467 22.72,58 L57.28,58 C59.795,58 68,57.247054 68,47.550726 C68,42.2103677 64.868,38.5355867 59.159,37.1368252 L59.159,37.1368252 Z" id="AWS-PrivateLink_Icon_64_Squid" fill="#FFFFFF"></path>
    </g>
</svg>

<svg xmlns="http://www.w3.org/2000/svg" width="80" height="80"><defs><linearGradient id="a" x1="0%" x2="100%" y1="100%" y2="0%"><stop offset="0%" stop-color="#4D27A8"/><stop offset="100%" stop-color="#A166FF"/></linearGradient></defs><g fill="none" fill-rule="evenodd"><path fill="url(#a)" d="M0 0h80v80H0z"/><path fill="#FFF" d="M41.745 41.155C42.713 42.25 44 43.927 44 45.872c0 3.901-3.141 7.075-7 7.075h-8c-3.859 0-7-3.174-7-7.075 0-3.9 3.141-7.075 7-7.075h4v2.022h-4c-2.757 0-5 2.268-5 5.053 0 2.786 2.243 5.053 5 5.053h8c2.757 0 5-2.267 5-5.053 0-1.252-.996-2.523-1.745-3.369l1.49-1.348ZM56 43.851c0 3.9-3.141 7.074-7 7.074h-4v-2.021h4c2.757 0 5-2.267 5-5.053s-2.243-5.054-5-5.054h-8c-2.757 0-5 2.268-5 5.054 0 .9.463 1.822.865 2.526l-1.73 1.012C34.606 46.467 34 45.231 34 43.851c0-3.9 3.141-7.075 7-7.075h8c3.859 0 7 3.175 7 7.075Zm1.28 12.128H22.721c-4.71-.004-8.453-3.393-8.704-7.88-.01-.205-.017-.415-.017-.63 0-5.777 4.112-7.704 6.605-8.341a1.01 1.01 0 0 0 .804-1.146 12.84 12.84 0 0 1-.091-1.514c0-4.642 3.29-9.64 7.49-11.378 5.061-2.091 10.419-1.05 14.337 2.79 1.527 1.496 2.718 3.406 3.54 5.68.126.347.428.596.789.652a1 1 0 0 0 .946-.385c1.228-1.626 3.216-2.31 5.073-1.735 2.159.666 3.558 2.884 3.738 5.932.028.458.356.84.801.931 3.635.74 7.968 2.832 7.968 8.596 0 7.333-5.463 8.428-8.72 8.428Zm1.879-18.842c-.424-3.535-2.288-6.117-5.082-6.979-2.142-.66-4.398-.169-6.107 1.246-.879-1.932-2.03-3.6-3.432-4.975-4.506-4.417-10.669-5.616-16.487-3.209-4.979 2.06-8.733 7.755-8.733 13.248 0 .306.01.614.03.923C16.627 38.27 12 40.755 12 47.47c0 .25.007.496.02.74.313 5.576 4.913 9.785 10.7 9.79h34.56C59.795 58 68 57.247 68 47.55c0-5.34-3.132-9.014-8.841-10.413Z"/></g></svg>
